images/Logo.svg

<svg width="145" height="31" fill="none" xmlns="http://www.w3.org/2000/svg"><g filter="url(#filter0_d)"><path d="M8.242 6.592h3.328l2.106 6.11 2.132-6.11h3.302l-3.172 8.398 2.34 5.876L23.504 6.54h3.9L20.02 25h-3.094l-3.25-7.748L10.452 25H7.358L0 6.54h3.848L9.1 20.866l2.288-5.876-3.146-8.398zM34.227 25.26c-1.4734 0-2.7474-.3207-3.822-.962-1.0574-.6413-1.8807-1.4907-2.47-2.548-.5894-1.0747-.884-2.236-.884-3.484 0-1.2827.286-2.4613.858-3.536.5893-1.092 1.4213-1.9587 2.496-2.6 1.0746-.6587 2.3573-.988 3.848-.988 1.4906 0 2.7646.3293 3.822.988 1.0573.6413 1.8633 1.4993 2.418 2.574.572 1.0573.858 2.2013.858 3.432 0 .4507-.026.8407-.078 1.17h-10.53c.0866 1.0573.4766 1.8893 1.17 2.496.7106.6067 1.5253.91 2.444.91.6933 0 1.3433-.1647 1.95-.494.624-.3467 1.0486-.7973 1.274-1.352l2.99.832c-.5027 1.04-1.3087 1.898-2.418 2.574-1.1094.6587-2.418.988-3.926.988zm-3.562-8.164h7.124c-.104-1.0227-.494-1.846-1.17-2.47-.6587-.6413-1.4647-.962-2.418-.962-.936 0-1.742.3207-2.418.962-.6587.624-1.0314 1.4473-1.118 2.47zm21.3364 8.164c-1.04 0-1.9673-.234-2.782-.702-.8146-.468-1.456-1.1093-1.924-1.924V25h-3.042V6.02h3.484v7.748c.4854-.8147 1.118-1.456 1.898-1.924.7974-.468 1.7247-.702 2.782-.702 1.1787 0 2.21.3293 3.094.988.9014.6413 1.6034 1.4993 2.106 2.574.5027 1.0747.754 2.2533.754 3.536 0 1.3173-.2773 2.5047-.832 3.562-.5546 1.0573-1.3173 1.898-2.288 2.522-.9533.624-2.0366.936-3.25.936zm-.962-2.964c.7454 0 1.3954-.182 1.95-.546.572-.364 1.014-.8493 1.326-1.456.3294-.624.494-1.3.494-2.028 0-.7453-.156-1.43-.468-2.054-.2946-.6413-.7106-1.1527-1.248-1.534-.5373-.3813-1.1526-.572-1.846-.572-.7626 0-1.4646.26-2.106.78-.624.5027-1.092 1.1267-1.404 1.872v3.25c.2254.676.6674 1.2307 1.326 1.664.6587.416 1.3174.624 1.976.624z" fill="#2196F3"/><path d="M72.8479 11.376c-.156-.1733-.4853-.3987-.988-.676-.5026-.2947-1.1093-.5547-1.82-.78-.6933-.24267-1.4126-.364-2.158-.364-1.9586 0-2.938.6933-2.938 2.08 0 .5027.156.9013.468 1.196.312.2947.78.546 1.404.754.624.208 1.404.4333 2.34.676 1.2134.312 2.262.676 3.146 1.092.9014.416 1.586.9707 2.054 1.664.4854.676.728 1.5773.728 2.704 0 1.3173-.3206 2.3833-.962 3.198-.624.7973-1.456 1.378-2.496 1.742-1.04.364-2.1666.546-3.38.546-1.3866 0-2.7646-.208-4.134-.624-1.352-.4333-2.5566-1.0227-3.614-1.768l1.586-3.094c.156.156.4334.364.832.624.3987.2427.884.494 1.456.754.572.2427 1.196.4507 1.872.624.676.1733 1.3607.26 2.054.26 1.976 0 2.964-.6327 2.964-1.898 0-.5373-.1993-.9707-.598-1.3-.3986-.3293-.962-.6067-1.69-.832-.7106-.2253-1.5426-.4767-2.496-.754-1.1786-.3293-2.158-.6933-2.938-1.092-.7626-.416-1.3346-.9273-1.716-1.534-.3813-.624-.572-1.4127-.572-2.366 0-1.2653.2947-2.32267.884-3.172.6067-.86667 1.4214-1.51667 2.444-1.95 1.0227-.45067 2.158-.676 3.406-.676 1.2827 0 2.4787.208 3.588.624 1.1094.416 2.0627.89267 2.86 1.43l-1.586 2.912zm13.2487 12.922c-.468.208-1.0487.416-1.742.624-.676.208-1.378.312-2.106.312-.6414 0-1.2307-.1127-1.768-.338-.5374-.2253-.9707-.5807-1.3-1.066-.312-.5027-.468-1.1527-.468-1.95v-7.826h-1.794v-2.678h1.794v-4.42h3.484v4.42h2.86v2.678h-2.86v6.656c0 .468.1213.806.364 1.014.26.208.572.312.936.312.364 0 .7193-.0607 1.066-.182.3466-.1213.624-.2253.832-.312l.702 2.756zm2.4645-4.394v-8.528h3.484v7.774c0 2.0973.754 3.146 2.262 3.146.676 0 1.326-.1993 1.95-.598.6413-.416 1.1613-1.04 1.56-1.872v-8.45h3.4839V21.1c0 .3813.061.65.182.806.121.1387.338.2253.65.26V25c-.347.0693-.641.1127-.884.13-.225.0173-.433.026-.624.026-.624 0-1.1353-.1387-1.5339-.416-.3814-.2947-.6067-.6933-.676-1.196l-.078-1.092c-.6067.936-1.3867 1.638-2.34 2.106-.9534.468-2.002.702-3.146.702-1.404 0-2.47-.4507-3.198-1.352-.728-.9187-1.092-2.2533-1.092-4.004zm16.1499-1.716c0-1.3.26-2.4873.78-3.562s1.24-1.924 2.158-2.548c.919-.624 1.968-.936 3.146-.936 1.006 0 1.907.2513 2.704.754.815.4853 1.448 1.1093 1.898 1.872V6.02h3.484V21.1c0 .3813.061.65.182.806.122.1387.33.2253.624.26V25c-.624.1213-1.118.182-1.482.182-.624 0-1.144-.156-1.56-.468-.398-.312-.624-.7193-.676-1.222l-.052-.858c-.502.8493-1.187 1.4993-2.054 1.95-.849.4507-1.742.676-2.678.676-1.265 0-2.383-.312-3.354-.936-.97-.6413-1.733-1.4907-2.288-2.548-.554-1.0747-.832-2.2707-.832-3.588zm10.686 1.82v-3.25c-.277-.7627-.754-1.3953-1.43-1.898-.676-.5027-1.369-.754-2.08-.754-.71 0-1.334.1993-1.872.598-.537.3813-.953.8927-1.248 1.534-.294.624-.442 1.3-.442 2.028 0 .7453.165 1.43.494 2.054.33.6067.772 1.092 1.326 1.456.572.3467 1.222.52 1.95.52.659 0 1.309-.2167 1.95-.65.659-.4333 1.11-.9793 1.352-1.638zm7.684-10.53V6.02h3.484v3.458h-3.484zm0 15.522V11.376h3.484V25h-3.484zm13.699.26c-1.491 0-2.773-.3207-3.848-.962-1.057-.6587-1.872-1.5253-2.444-2.6-.572-1.0747-.858-2.236-.858-3.484 0-1.2653.286-2.4353.858-3.51.589-1.0747 1.413-1.9327 2.47-2.574 1.075-.6587 2.349-.988 3.822-.988 1.473 0 2.739.3293 3.796.988 1.075.6413 1.898 1.4993 2.47 2.574.572 1.0747.858 2.2447.858 3.51 0 1.248-.286 2.4093-.858 3.484-.572 1.0747-1.395 1.9413-2.47 2.6-1.057.6413-2.323.962-3.796.962zm-3.562-7.046c0 .7973.156 1.508.468 2.132.312.6067.737 1.0833 1.274 1.43s1.144.52 1.82.52c.659 0 1.257-.1733 1.794-.52.537-.364.962-.8493 1.274-1.456.329-.624.494-1.3347.494-2.132 0-.78-.165-1.4733-.494-2.08-.312-.624-.737-1.1093-1.274-1.456-.537-.364-1.135-.546-1.794-.546-.676 0-1.283.182-1.82.546-.537.3467-.962.832-1.274 1.456-.312.6067-.468 1.3087-.468 2.106z" fill="#000"/></g><defs><filter id="filter0_d" x="-4" y="6.02002" width="151.904" height="27.24" filterUnits="userSpaceOnUse" color-interpolation-filters="sRGB"><feFlood flood-opacity="0" result="BackgroundImageFix"/><feColorMatrix in="SourceAlpha" values="0 0 0 0 0 0 0 0 0 0 0 0 0 0 0 0 0 0 127 0"/><feOffset dy="4"/><feGaussianBlur stdDeviation="2"/><feColorMatrix values="0 0 0 0 0 0 0 0 0 0 0 0 0 0 0 0 0 0 0.25 0"/><feBlend in2="BackgroundImageFix" result="effect1_dropShadow"/><feBlend in="SourceGraphic" in2="effect1_dropShadow" result="shape"/></filter></defs></svg>

<svg width="145" height="31" viewBox="0 0 145 31" fill="none" xmlns="http://www.w3.org/2000/svg">
<g filter="url(#filter0_d)">
<path d="M8.242 6.592H11.57L13.676 12.702L15.808 6.592H19.11L15.938 14.99L18.278 20.866L23.504 6.54H27.404L20.02 25H16.926L13.676 17.252L10.452 25H7.358L0 6.54H3.848L9.1 20.866L11.388 14.99L8.242 6.592ZM34.227 25.26C32.7536 25.26 31.4796 24.9393 30.405 24.298C29.3476 23.6567 28.5243 22.8073 27.935 21.75C27.3456 20.6753 27.051 19.514 27.051 18.266C27.051 16.9833 27.337 15.8047 27.909 14.73C28.4983 13.638 29.3303 12.7713 30.405 12.13C31.4796 11.4713 32.7623 11.142 34.253 11.142C35.7436 11.142 37.0176 11.4713 38.075 12.13C39.1323 12.7713 39.9383 13.6293 40.493 14.704C41.065 15.7613 41.351 16.9053 41.351 18.136C41.351 18.5867 41.325 18.9767 41.273 19.306H30.743C30.8296 20.3633 31.2196 21.1953 31.913 21.802C32.6236 22.4087 33.4383 22.712 34.357 22.712C35.0503 22.712 35.7003 22.5473 36.307 22.218C36.931 21.8713 37.3556 21.4207 37.581 20.866L40.571 21.698C40.0683 22.738 39.2623 23.596 38.153 24.272C37.0436 24.9307 35.735 25.26 34.227 25.26ZM30.665 17.096H37.789C37.685 16.0733 37.295 15.25 36.619 14.626C35.9603 13.9847 35.1543 13.664 34.201 13.664C33.265 13.664 32.459 13.9847 31.783 14.626C31.1243 15.25 30.7516 16.0733 30.665 17.096ZM52.0014 25.26C50.9614 25.26 50.0341 25.026 49.2194 24.558C48.4048 24.09 47.7634 23.4487 47.2954 22.634V25H44.2534V6.02H47.7374V13.768C48.2228 12.9533 48.8554 12.312 49.6354 11.844C50.4328 11.376 51.3601 11.142 52.4174 11.142C53.5961 11.142 54.6274 11.4713 55.5114 12.13C56.4128 12.7713 57.1148 13.6293 57.6174 14.704C58.1201 15.7787 58.3714 16.9573 58.3714 18.24C58.3714 19.5573 58.0941 20.7447 57.5394 21.802C56.9848 22.8593 56.2221 23.7 55.2514 24.324C54.2981 24.948 53.2148 25.26 52.0014 25.26ZM51.0394 22.296C51.7848 22.296 52.4348 22.114 52.9894 21.75C53.5614 21.386 54.0034 20.9007 54.3154 20.294C54.6448 19.67 54.8094 18.994 54.8094 18.266C54.8094 17.5207 54.6534 16.836 54.3414 16.212C54.0468 15.5707 53.6308 15.0593 53.0934 14.678C52.5561 14.2967 51.9408 14.106 51.2474 14.106C50.4848 14.106 49.7828 14.366 49.1414 14.886C48.5174 15.3887 48.0494 16.0127 47.7374 16.758V20.008C47.9628 20.684 48.4048 21.2387 49.0634 21.672C49.7221 22.088 50.3808 22.296 51.0394 22.296Z" fill="#2196F3"/>
<path d="M72.8479 11.376C72.6919 11.2027 72.3626 10.9773 71.8599 10.7C71.3573 10.4053 70.7506 10.1453 70.0399 9.92C69.3466 9.67733 68.6273 9.556 67.8819 9.556C65.9233 9.556 64.9439 10.2493 64.9439 11.636C64.9439 12.1387 65.0999 12.5373 65.4119 12.832C65.7239 13.1267 66.1919 13.378 66.8159 13.586C67.4399 13.794 68.2199 14.0193 69.1559 14.262C70.3693 14.574 71.4179 14.938 72.3019 15.354C73.2033 15.77 73.8879 16.3247 74.3559 17.018C74.8413 17.694 75.0839 18.5953 75.0839 19.722C75.0839 21.0393 74.7633 22.1053 74.1219 22.92C73.4979 23.7173 72.6659 24.298 71.6259 24.662C70.5859 25.026 69.4593 25.208 68.2459 25.208C66.8593 25.208 65.4813 25 64.1119 24.584C62.7599 24.1507 61.5553 23.5613 60.4979 22.816L62.0839 19.722C62.2399 19.878 62.5173 20.086 62.9159 20.346C63.3146 20.5887 63.7999 20.84 64.3719 21.1C64.9439 21.3427 65.5679 21.5507 66.2439 21.724C66.9199 21.8973 67.6046 21.984 68.2979 21.984C70.2739 21.984 71.2619 21.3513 71.2619 20.086C71.2619 19.5487 71.0626 19.1153 70.6639 18.786C70.2653 18.4567 69.7019 18.1793 68.9739 17.954C68.2633 17.7287 67.4313 17.4773 66.4779 17.2C65.2993 16.8707 64.3199 16.5067 63.5399 16.108C62.7773 15.692 62.2053 15.1807 61.8239 14.574C61.4426 13.95 61.2519 13.1613 61.2519 12.208C61.2519 10.9427 61.5466 9.88533 62.1359 9.036C62.7426 8.16933 63.5573 7.51933 64.5799 7.086C65.6026 6.63533 66.7379 6.41 67.9859 6.41C69.2686 6.41 70.4646 6.618 71.5739 7.034C72.6833 7.45 73.6366 7.92667 74.4339 8.464L72.8479 11.376ZM86.0966 24.298C85.6286 24.506 85.0479 24.714 84.3546 24.922C83.6786 25.13 82.9766 25.234 82.2486 25.234C81.6072 25.234 81.0179 25.1213 80.4806 24.896C79.9432 24.6707 79.5099 24.3153 79.1806 23.83C78.8686 23.3273 78.7126 22.6773 78.7126 21.88V14.054H76.9186V11.376H78.7126V6.956H82.1966V11.376H85.0566V14.054H82.1966V20.71C82.1966 21.178 82.3179 21.516 82.5606 21.724C82.8206 21.932 83.1326 22.036 83.4966 22.036C83.8606 22.036 84.2159 21.9753 84.5626 21.854C84.9092 21.7327 85.1866 21.6287 85.3946 21.542L86.0966 24.298ZM88.5611 19.904V11.376H92.0451V19.15C92.0451 21.2473 92.7991 22.296 94.3071 22.296C94.9831 22.296 95.6331 22.0967 96.2571 21.698C96.8984 21.282 97.4184 20.658 97.8171 19.826V11.376H101.301V21.1C101.301 21.4813 101.362 21.75 101.483 21.906C101.604 22.0447 101.821 22.1313 102.133 22.166V25C101.786 25.0693 101.492 25.1127 101.249 25.13C101.024 25.1473 100.816 25.156 100.625 25.156C100.001 25.156 99.4897 25.0173 99.0911 24.74C98.7097 24.4453 98.4844 24.0467 98.4151 23.544L98.3371 22.452C97.7304 23.388 96.9504 24.09 95.9971 24.558C95.0437 25.026 93.9951 25.26 92.8511 25.26C91.4471 25.26 90.3811 24.8093 89.6531 23.908C88.9251 22.9893 88.5611 21.6547 88.5611 19.904ZM104.711 18.188C104.711 16.888 104.971 15.7007 105.491 14.626C106.011 13.5513 106.731 12.702 107.649 12.078C108.568 11.454 109.617 11.142 110.795 11.142C111.801 11.142 112.702 11.3933 113.499 11.896C114.314 12.3813 114.947 13.0053 115.397 13.768V6.02H118.881V21.1C118.881 21.4813 118.942 21.75 119.063 21.906C119.185 22.0447 119.393 22.1313 119.687 22.166V25C119.063 25.1213 118.569 25.182 118.205 25.182C117.581 25.182 117.061 25.026 116.645 24.714C116.247 24.402 116.021 23.9947 115.969 23.492L115.917 22.634C115.415 23.4833 114.73 24.1333 113.863 24.584C113.014 25.0347 112.121 25.26 111.185 25.26C109.92 25.26 108.802 24.948 107.831 24.324C106.861 23.6827 106.098 22.8333 105.543 21.776C104.989 20.7013 104.711 19.5053 104.711 18.188ZM115.397 20.008V16.758C115.12 15.9953 114.643 15.3627 113.967 14.86C113.291 14.3573 112.598 14.106 111.887 14.106C111.177 14.106 110.553 14.3053 110.015 14.704C109.478 15.0853 109.062 15.5967 108.767 16.238C108.473 16.862 108.325 17.538 108.325 18.266C108.325 19.0113 108.49 19.696 108.819 20.32C109.149 20.9267 109.591 21.412 110.145 21.776C110.717 22.1227 111.367 22.296 112.095 22.296C112.754 22.296 113.404 22.0793 114.045 21.646C114.704 21.2127 115.155 20.6667 115.397 20.008ZM123.081 9.478V6.02H126.565V9.478H123.081ZM123.081 25V11.376H126.565V25H123.081ZM136.78 25.26C135.289 25.26 134.007 24.9393 132.932 24.298C131.875 23.6393 131.06 22.7727 130.488 21.698C129.916 20.6233 129.63 19.462 129.63 18.214C129.63 16.9487 129.916 15.7787 130.488 14.704C131.077 13.6293 131.901 12.7713 132.958 12.13C134.033 11.4713 135.307 11.142 136.78 11.142C138.253 11.142 139.519 11.4713 140.576 12.13C141.651 12.7713 142.474 13.6293 143.046 14.704C143.618 15.7787 143.904 16.9487 143.904 18.214C143.904 19.462 143.618 20.6233 143.046 21.698C142.474 22.7727 141.651 23.6393 140.576 24.298C139.519 24.9393 138.253 25.26 136.78 25.26ZM133.218 18.214C133.218 19.0113 133.374 19.722 133.686 20.346C133.998 20.9527 134.423 21.4293 134.96 21.776C135.497 22.1227 136.104 22.296 136.78 22.296C137.439 22.296 138.037 22.1227 138.574 21.776C139.111 21.412 139.536 20.9267 139.848 20.32C140.177 19.696 140.342 18.9853 140.342 18.188C140.342 17.408 140.177 16.7147 139.848 16.108C139.536 15.484 139.111 14.9987 138.574 14.652C138.037 14.288 137.439 14.106 136.78 14.106C136.104 14.106 135.497 14.288 134.96 14.652C134.423 14.9987 133.998 15.484 133.686 16.108C133.374 16.7147 133.218 17.4167 133.218 18.214Z" fill="black"/>
</g>
<defs>
<filter id="filter0_d" x="-4" y="6.02002" width="151.904" height="27.24" filterUnits="userSpaceOnUse" color-interpolation-filters="sRGB">
<feFlood flood-opacity="0" result="BackgroundImageFix"/>
<feColorMatrix in="SourceAlpha" type="matrix" values="0 0 0 0 0 0 0 0 0 0 0 0 0 0 0 0 0 0 127 0"/>
<feOffset dy="4"/>
<feGaussianBlur stdDeviation="2"/>
<feColorMatrix type="matrix" values="0 0 0 0 0 0 0 0 0 0 0 0 0 0 0 0 0 0 0.25 0"/>
<feBlend mode="normal" in2="BackgroundImageFix" result="effect1_dropShadow"/>
<feBlend mode="normal" in="SourceGraphic" in2="effect1_dropShadow" result="shape"/>
</filter>
</defs>
</svg>
